X: 9
T: Drunken Landlady, The
Z: Erik-Fiddler
S: https://thesession.org/tunes/363#setting48474
R: reel
M: 4/4
L: 1/8
K: Ador
|:ef|g3 f eA (3A/A/A/A|eAgA eA (3A/A/A/A|fd (3d/d/d/d fdad|gdfd Bdef|
g3 f eA (3A/A/A/A|eAgA eA (3A/A/A/A|d2 ef gbaf|gedB A2:|
|:eg|ae (3e/e/e/e aegd|e/f/g fg edBe|dedB G/G/G BG|Bdde dGBd|
ae e/e/e aegd|e/f/g fg edBe|d/d/d ef gbaf|gedB A2:|
|:ag|eA (3A/A/A/A edBd|eA (3A/A/A/A edB^c|dedB (3G/G/G/G BG|Bdde dG B/^c/d|
eA (3A/A/A/A edBd|eA (3A/A/A/A edB^c|(3d/d/d/d ef geaf|gedB A2:|
Bd|eaag a2 eg|ageg (3a/a/a/a ge|dedB (3G/G/G/G BG|Bdde dG B/^c/d|
eaag a2 eg|ageg (3a/a/a/a ge|[D2d2] ef geaf|gedB BAAe|
ageg a/a/a ga|(3b/b/b/b ba g2 ge|(3d/d/d/d ef geaf|gedB BA||

